X: 28770
T: My Love In The Morning
R: slide
M: 12/8
K: Edorian
|:E3 EFE F2E D2A|B3 BAB d2A Bcd|
edB dcB A2F D2E|1 FED AGF E2F G2F:|2 FED AGF E3 E2A||
|:B2e efe d2B ABd|e2d B2c d3 Bcd|
edB dcB AGF D2E|1 FED AGF E3 E2A:|2 FED AGF E2F G2F||

